icons/svg/16x16/device tablet/outline.svg

<svg xmlns="http://www.w3.org/2000/svg" width="16" height="16" viewBox="0 0 16 16">
  <path fill-rule="evenodd" d="M8.6,12 L7.401,12 C7.179,12 7,11.821 7,11.6 L7,10.4 C7,10.179 7.179,10 7.401,10 L8.6,10 C8.822,10 9,10.179 9,10.4 L9,11.6 C9,11.821 8.822,12 8.6,12 L8.6,12 Z M3,14 L13,14 L13,2 L3,2 L3,14 Z M13,0 L3,0 C1.896,0 1,0.896 1,2 L1,14 C1,15.104 1.896,16 3,16 L13,16 C14.105,16 15,15.104 15,14 L15,2 C15,0.896 14.105,0 13,0 L13,0 Z"/>
</svg>

<svg width="16" height="16" fill="none" xmlns="http://www.w3.org/2000/svg">
  <path fill-rule="evenodd" clip-rule="evenodd" d="M8.6 12H7.401A.4.4 0 017 11.6v-1.2a.4.4 0 01.401-.4H8.6a.4.4 0 01.4.4v1.2a.4.4 0 01-.4.4zM3 14h10V2H3v12zM13 0H3a2 2 0 00-2 2v12a2 2 0 002 2h10a2 2 0 002-2V2a2 2 0 00-2-2z" fill="#000"/>
</svg>
